X:23
T:Pray Goody  
O:No 23 Pages 8-9 William Clarke of Feltwell  MS 1858
N:Fine sign added at end of bar 8.
N:MS shows pauses over each of last 2 notes of 2nd part
I:abc2nwc
M:4/4
L:1/8
K:G
d4(cB)(AG)|(BA)(GF) GB(df)|g2(fe) (dB)(AG)|(gd)cB B2A2|
d4(cB)(AG)|(BA)(GF) (GB)(df)|g2(fe) (dB)(ec)|Bd(cA)G4||
g2d2e2d2|(gB).B.B c2B2|(gd).d.d (gd).d.d|(gd).c.B B2{c^ced}A2{B=c^c:||

